!!!COM: Music21
!!!OTL: hornpipe_Turas-Do-Phort-Adhar-Dhun-Eideann
!!!OMV: hornpipe_Turas-Do-Phort-Adhar-Dhun-Eideann
**kern
*clefG2
*k[]
*M4/4
=1
8cL
8GJ
8GL
8AJ
4c
8eL
8dJ
=
8cL
8AJ
8AL
8GJ
4A
8eL
8dJ
=
8cL
8GJ
8GL
8AJ
4c
8gL
8fJ
=
16eLL
16f
16g
16fJJ
16eLL
16d
16g
16fJJ
8eL
8cJ
4c
!!linebreak:original
=||
*M4/4
8cL
8GJ
8GL
8AJ
4c
8eL
8dJ
=
8cL
8AJ
8AL
8GJ
4A
8eL
8dJ
=
8cL
8GJ
8GL
8AJ
4c
8gL
8fJ
=
16eLL
16f
16g
16fJJ
16eLL
16d
16g
16fJJ
8eL
8cJ
4c
!!linebreak:original
=||
8gL
8eJ
8eL
8gJ
4e
8aL
8gJ
=
8gL
8fJ
8fL
8gJ
4f
8aL
8fJ
=
8gL
8eJ
8eL
8gJ
4e
8aL
8gJ
=
16eLL
16f
16g
16fJJ
16eLL
16d
16g
16fJJ
8eL
8cJ
4c
=||
8gL
8eJ
8eL
8gJ
4e
8aL
8gJ
!!linebreak:original
=
8gL
8fJ
8fL
8gJ
4f
8aL
8fJ
=
8gL
8eJ
8eL
8gJ
4e
8aL
8gJ
=
16eLL
16f
16g
16fJJ
16eLL
16d
16g
16fJJ
8eL
8cJ
4c
=||
*-
